X:108
T:Quadrille
S:John Moore's Book 2
Z:Transcribed by Steve Mansfield 05/2021
%%VWML: Moore2-4494-p84-0
F:http://www.vwml.org/record/Moore2/4494/p84
N:Rest editorial
M:6/8
L:1/8
K:D
A | d2A d2A | d2A d2A | dce def | a2g e2A | 
e2A e2A | e2A g2A | cde ABc | dfe d2 :|
|: "*"z | aba d'2f | fgf a2d | dce def | a2g e2f | 
gfg b2g | ede g2e | cde ABc | dfe d2 :|

